docs/img/hero/hero-icon-1.svg

<svg width="100" height="100" viewBox="0 0 100 100" fill="none" xmlns="http://www.w3.org/2000/svg">
<path d="M40.8218 12.5C38.0843 12.5 35.6812 13.9063 33.9843 15.7219C32.2875 17.5406 31.0656 19.8125 29.9812 22.2656C28.3218 26.0469 27.1375 30.25 26.075 34.1812C22.6812 35.1687 19.8 36.4 17.4812 37.8906C14.7718 39.6375 12.5 42.0531 12.5 45.3125C12.5 48.1437 14.2343 50.4156 16.4062 52.05C18.2625 53.4438 20.5437 54.6031 23.2437 55.5656C23.4 56.2844 23.6343 57.0187 23.925 57.7156C21.2906 59.2031 17.1125 62.0844 13.0875 67.5781L11.2312 70.2156L13.8687 72.0688L24.1187 79.1L19.925 87.5H80.0812L75.8812 79.1L86.1375 72.0688L88.7718 70.2156L86.9187 67.5781C82.8875 62.0844 78.7156 59.2031 76.075 57.7156C76.3718 57.0187 76.6031 56.2875 76.7625 55.5656C79.4593 54.6031 81.7406 53.4406 83.5968 52.05C85.7687 50.4156 87.5031 48.1437 87.5031 45.3125C87.5031 42.0531 85.2312 39.6375 82.5218 37.8906C80.2031 36.4 77.3218 35.1688 73.9281 34.1781C72.7562 30.1031 71.4624 25.8313 69.8281 22.0719C68.7656 19.6406 67.5937 17.4062 65.9218 15.625C64.25 13.8438 61.8687 12.5 59.1812 12.5C57.3624 12.5 55.9843 13 54.4937 13.3781C53.0062 13.7563 51.5031 14.0625 50.0031 14.0625C47.0031 14.0625 44.4843 12.5 40.8218 12.5ZM40.8218 18.75C41.4687 18.75 45.3125 20.3125 50 20.3125C52.3437 20.3125 54.4312 19.8375 56.0562 19.4344C57.6781 19.0281 58.9124 18.75 59.1812 18.75C59.9 18.75 60.4375 18.9812 61.3281 19.9219C62.2187 20.8594 63.2687 22.5594 64.1593 24.6094C65.8562 28.4906 67.15 33.7906 68.5562 38.6719C68.5562 38.6594 68.725 38.525 68.2625 38.7688C67.4812 39.1969 65.8437 39.7469 63.8656 40.0375C59.9 40.6375 54.4906 40.625 50 40.625C45.5312 40.625 40.1125 40.5625 36.1312 39.9406C34.1437 39.6375 32.5312 39.0969 31.7375 38.6719C31.4937 38.5375 31.4093 38.5875 31.3468 38.575V38.4781C31.3593 38.4531 31.3343 38.4031 31.3468 38.3781L31.4437 38.2812C31.6775 37.861 31.8122 37.3928 31.8375 36.9125V36.8187C32.9593 32.6656 34.2156 28.2719 35.7437 24.8031C36.6562 22.7187 37.6468 21.0219 38.575 20.0219C39.5031 19.0188 40.1375 18.75 40.8218 18.75ZM25.5843 40.9187C26.2937 42.3844 27.5406 43.5562 28.8093 44.2375C30.7156 45.25 32.8968 45.7281 35.2531 46.0938C39.9656 46.825 45.4843 46.875 50 46.875C54.4937 46.875 60.0218 46.9 64.7468 46.1906C67.1156 45.8375 69.275 45.375 71.1906 44.3344C72.4718 43.6406 73.7187 42.4062 74.4156 40.9187C76.3437 41.6031 77.9656 42.3344 79.1031 43.0656C80.9218 44.2375 81.25 45.1063 81.25 45.3125C81.25 45.4969 81.0937 46.0938 79.7843 47.0719C78.4781 48.0469 76.2343 49.1813 73.3406 50.0969C67.5531 51.9406 59.2281 53.125 50 53.125C40.7718 53.125 32.4468 51.9406 26.6593 50.0969C23.7656 49.1813 21.5218 48.0469 20.2156 47.0719C18.9062 46.0938 18.75 45.4969 18.75 45.3125C18.75 45.1063 18.9937 44.325 20.8 43.1625C21.9375 42.4313 23.6093 41.6375 25.5875 40.9187H25.5843ZM33.6906 58.0094C34.7156 58.1781 35.7312 58.4594 36.8156 58.5938C37.2218 61.3406 39.3562 63.7562 42.7718 63.9656C45.4093 64.1219 48.375 62.8781 48.6343 59.375H51.3687C51.625 62.8781 54.5875 64.125 57.2281 63.9656C60.6437 63.7562 62.7812 61.3406 63.1843 58.5938C64.2687 58.4594 65.2843 58.1781 66.3093 58.0063L66.0156 59.9594C65.05 65.1 62.7562 69.8594 59.8625 73.1469C56.9687 76.425 53.5781 78.1719 50 78.125C46.325 78.075 43.0062 76.3063 40.1375 73.0469C37.2687 69.7875 35.0125 65.125 33.9843 59.9594L33.6906 58.0094ZM71.875 62.5C73.0343 63.1844 76.0874 65.1875 79.5906 69.0438L70.1156 75.5844L67.8718 77.0531L69.0437 79.4906L69.9218 81.25H60.0593C61.7209 80.1128 63.2301 78.7675 64.55 77.2469C67.9937 73.3406 70.3 68.225 71.5812 62.6938C71.6906 62.6344 71.7781 62.5625 71.875 62.5ZM28.0281 62.5969C28.15 62.6719 28.2968 62.7219 28.4187 62.7938C29.7625 68.25 32.0562 73.3031 35.45 77.1469C36.8531 78.7469 38.4875 80.1156 40.2343 81.25H30.0781L30.9562 79.4906L32.1281 77.0531L29.8812 75.5844L20.4125 69.0438C23.7187 65.3937 26.7343 63.3781 28.0281 62.5969Z" fill="white"/>
</svg>

<svg width="100" height="100" fill="none" xmlns="http://www.w3.org/2000/svg"><path d="M40.822 12.5c-2.738 0-5.14 1.406-6.838 3.222-1.697 1.819-2.918 4.09-4.003 6.544-1.66 3.78-2.844 7.984-3.906 11.915-3.394.988-6.275 2.219-8.594 3.71-2.71 1.747-4.981 4.162-4.981 7.422 0 2.83 1.734 5.103 3.906 6.737 1.857 1.394 4.138 2.553 6.838 3.516.156.718.39 1.453.681 2.15-2.634 1.487-6.813 4.368-10.838 9.862l-1.856 2.638 2.638 1.853 10.25 7.031-4.194 8.4h60.156l-4.2-8.4 10.257-7.031 2.634-1.853-1.853-2.638c-4.031-5.494-8.203-8.375-10.844-9.862a12.29 12.29 0 00.688-2.15c2.696-.963 4.978-2.125 6.834-3.516 2.172-1.634 3.906-3.906 3.906-6.737 0-3.26-2.272-5.675-4.981-7.422-2.319-1.491-5.2-2.722-8.594-3.713-1.172-4.075-2.466-8.347-4.1-12.106-1.062-2.431-2.234-4.666-3.906-6.447-1.672-1.781-4.053-3.125-6.74-3.125-1.82 0-3.198.5-4.688.878-1.488.378-2.99.684-4.49.684-3 0-5.52-1.562-9.182-1.562zm0 6.25c.647 0 4.49 1.563 9.178 1.563 2.344 0 4.431-.476 6.056-.879 1.622-.406 2.856-.684 3.125-.684.719 0 1.257.231 2.147 1.172.89.937 1.94 2.637 2.831 4.687 1.697 3.882 2.991 9.182 4.397 14.063 0-.013.169-.147-.293.097-.782.428-2.42.978-4.397 1.269-3.966.6-9.375.587-13.866.587-4.469 0-9.888-.063-13.869-.684-1.987-.303-3.6-.844-4.393-1.27-.244-.133-.329-.084-.391-.096v-.097c.012-.025-.013-.075 0-.1l.097-.097a3.16 3.16 0 00.393-1.368v-.094c1.122-4.153 2.379-8.547 3.907-12.016.912-2.084 1.903-3.781 2.831-4.781.928-1.003 1.563-1.272 2.247-1.272zM25.584 40.919c.71 1.465 1.957 2.637 3.225 3.319 1.907 1.012 4.088 1.49 6.444 1.856 4.713.731 10.231.781 14.747.781 4.494 0 10.022.025 14.747-.684 2.369-.354 4.528-.816 6.444-1.857 1.28-.693 2.528-1.928 3.225-3.415 1.928.684 3.55 1.415 4.687 2.147 1.819 1.171 2.147 2.04 2.147 2.246 0 .185-.156.782-1.466 1.76-1.306.975-3.55 2.11-6.443 3.025C67.553 51.94 59.228 53.125 50 53.125c-9.228 0-17.553-1.184-23.34-3.028-2.894-.916-5.138-2.05-6.444-3.025-1.31-.978-1.466-1.575-1.466-1.76 0-.206.244-.987 2.05-2.15 1.137-.73 2.81-1.524 4.787-2.243h-.003zm8.107 17.09c1.025.17 2.04.45 3.125.585.406 2.747 2.54 5.162 5.956 5.372 2.637.156 5.603-1.088 5.862-4.591h2.735c.256 3.503 3.218 4.75 5.86 4.59 3.415-.209 5.552-2.624 5.955-5.371 1.085-.135 2.1-.416 3.125-.588l-.293 1.953c-.966 5.141-3.26 9.9-6.154 13.188-2.893 3.278-6.284 5.025-9.862 4.978-3.675-.05-6.994-1.819-9.862-5.078-2.87-3.26-5.125-7.922-6.154-13.088l-.293-1.95zM71.875 62.5c1.16.684 4.212 2.688 7.716 6.544l-9.475 6.54-2.244 1.47 1.172 2.437.878 1.759h-9.863a23.586 23.586 0 004.491-4.003c3.444-3.906 5.75-9.022 7.031-14.553.11-.06.197-.132.294-.194zm-43.847.097c.122.075.269.125.39.197 1.345 5.456 3.638 10.51 7.032 14.353 1.403 1.6 3.037 2.969 4.784 4.103H30.078l.878-1.76 1.172-2.437-2.247-1.469-9.468-6.54c3.306-3.65 6.321-5.666 7.615-6.447z" fill="#fff"/></svg>
